T: Luradan's
M: 6/8
L: 1/8
K: Gmaj
edB dBA | GBG AGE | DEG AGA | BAA A2 g |edB dBA | GBG AGE | DEG AGA | BGG G2 :|GBd g2 g | aga bge | gab age | deg a2 b | age edB | GBG AGE | DEG AGA | BGG G2 :|
